Assets/Logos/Visa.svg

<svg width="75" height="24" viewBox="0 0 75 24" fill="none" xmlns="http://www.w3.org/2000/svg">
<path d="M32.2219 23.6H26.1854L29.9581 0.414295H35.9952L32.2219 23.6ZM21.1072 0.414295L15.3523 16.3616L14.6714 12.9275L14.672 12.9288L12.6408 2.5019C12.6408 2.5019 12.3952 0.414295 9.77734 0.414295H0.263431L0.151794 0.806883C0.151794 0.806883 3.06117 1.4122 6.46608 3.45701L11.7105 23.6006H18L27.6038 0.414295H21.1072ZM68.5868 23.6H74.1296L69.297 0.413675H64.4445C62.2037 0.413675 61.6579 2.14156 61.6579 2.14156L52.655 23.6H58.9476L60.206 20.156H67.8798L68.5868 23.6ZM61.9444 15.3984L65.1162 6.72176L66.9005 15.3984H61.9444ZM53.127 5.98992L53.9885 1.01093C53.9885 1.01093 51.3303 0 48.5592 0C45.5637 0 38.4499 1.30925 38.4499 7.67563C38.4499 13.6656 46.7991 13.74 46.7991 16.8863C46.7991 20.0326 39.3102 19.4688 36.8386 17.4848L35.9412 22.6908C35.9412 22.6908 38.6366 24 42.7548 24C46.8741 24 53.0886 21.8671 53.0886 16.062C53.0886 10.0336 44.6644 9.47236 44.6644 6.85138C44.665 4.22979 50.5439 4.56655 53.127 5.98992Z" fill="#ADADAD"/>
<path d="M14.6718 12.9281L12.6407 2.50128C12.6407 2.50128 12.3951 0.413673 9.77724 0.413673H0.26343L0.151794 0.806262C0.151794 0.806262 4.7245 1.75393 9.11053 5.30459C13.3043 8.69835 14.6718 12.9281 14.6718 12.9281Z" fill="#ADADAD"/>
</svg>

<svg width="75" height="24" fill="none" xmlns="http://www.w3.org/2000/svg"><path d="M32.222 23.6h-6.037L29.958.414h6.037L32.222 23.6zM21.107.414l-5.755 15.948-.68-3.434-2.031-10.426S12.395.414 9.777.414H.263L.152.807s2.91.605 6.314 2.65l5.244 20.144H18L27.604.414h-6.497zM68.587 23.6h5.543L69.297.414h-4.852c-2.241 0-2.787 1.728-2.787 1.728L52.655 23.6h6.293l1.258-3.444h7.674l.707 3.444zm-6.643-8.202l3.172-8.676 1.784 8.676h-4.956zM53.127 5.99l.861-4.98S51.33 0 48.56 0c-2.995 0-10.11 1.31-10.11 7.676 0 5.99 8.35 6.064 8.35 9.21 0 3.147-7.489 2.583-9.96.599l-.898 5.206S38.637 24 42.755 24c4.12 0 10.334-2.133 10.334-7.938 0-6.028-8.425-6.59-8.425-9.21.001-2.622 5.88-2.285 8.463-.862z" fill="#ADADAD"/><path d="M14.672 12.928L12.64 2.501S12.395.414 9.777.414H.263L.152.806s4.572.948 8.959 4.499c4.193 3.393 5.56 7.623 5.56 7.623z" fill="#ADADAD"/></svg>
